X: 241
T: I Have Been Helping
C: Teton Sioux band 1911-1914
N: Derived from sioux236.krn
O: South Dakota, U.S.A.
N: Teton Sioux Music by Frances Densmore, 1918
Z: transcribed to **kern format by Craig Sapp
L: 1/8
M: 2/4
Q: 1/4=58
K: Bb clef=bass
%%linebreak <none>
G GG2 [I:setbarnb 2]| 
D G G/ D3/ | 
D CB,2 | 
D D G D | 
C C C/ B,3/ | 
C< B,B,2 ||  
[M:3/4]G, B, B, G, G, G, ||  
[M:2/4]G,4 | 
B, B,C2 ||  
[M:3/4]B, C C< B, B, B, ||  
[M:2/4]B,< G, G, G, | 
G,4 | 
G,4 | 
D C B, B, ||  
[M:3/4]B,6 ||  
[M:2/4]D D F D | 
C C C/ B,3/ ||  
[M:3/4]C< B, B, B, G, B, ||  
[M:2/4]B,2C2 ||  
[M:3/4]B, C (C/ B,/) B, B, B, | 
B,< G,-G,2G, G, | 
G,6 |]  



